!!! OTL: Berkowitz96
!!! Chapter: 1
!!! Section: I
!!! Page: 24
!!! Mode: 
!!! Encoder: DJB
**kern
*staff1
*I"Piano
=1-
*clefG2
*k[b-e-a-]
*c:
*M3/4
2g/
4e-/
=2
4d/
8c/L
8d/J
8e-/L
8f/J
=3
2g/
4e-/
=4
4c/
8Bn/L
8c/J
8d/L
8e-/J
=5
4f/
8g/L
8a-/J
8g/L
8f/J
=6
4e-/
8f/L
8g/J
8f/L
8e-/J
=7
2.d/
=8
4r
4e-/
4f/
=9
4g/
4c/
4g/
=10
!!linebreak:original
4a-/
8b-/L
8a-/J
8g/L
8f/J
=11
4g/
4c/
4d/
=12
4e-/
8f/L
8e-/J
8d/L
8c/J
=13
4d/
4e-/
4c/
=14
4d/
4.e-/
8d/
=15
2c/
8e-/L
8d/J
=16
2.c/
==
*-
